X:1
T: Tarholm Brig
C:
R:Strathspey
Q: 128
K:D
M:4/4
L:1/16
|:A2|d3c d3B AF3 A3B|DD3 F3E DB,3 B,3D|A,3B, D3E F3E FA3|Bd3 A3F E4 E2A2|
d3c d3B AF3 A3B|DD3 F3E DB,3 B,3D|A,3F D3B, A,3B, D3B|AF3 d3F E4 D2A2|
f4 e3f dB3 B3A|db3 a3d cA3 A3d|f4 f3e dB3 B3A|dfb2 a3f e4 a3g|
f4 e3f dB3 B3A|db3 a3d cA3 A3F|((3D2F2A2) ((3A2F2A2) ((3B2A2B2) d3A|((3d2f2b2) a3f d4:|
